X: 1
T: Casey Finnegan's
M: 2/4
L: 1/8
R: polka
K: Dmaj
|:A/A/A df| ed B2|A/d/f gf| e4|
A/A/A df| ed B2|Ac ec |d2 d2:|
B/B/B fe |A/A/A ed|G/G/G dc| F2 A2|
B/B/B fe |A/A/A ed|B/g/f ed| cB AF|
A/A/A df| ed B2|A/d/f gf| e2a2|
A/A/A df| ed B2|Ac ec| d4||
